X:675
T: Pomeroy Fiddler [The]
C: M.McDermott
S: B.Breathnach:"Ceol Rince na hEireann" IV/193 (gan ainm)
Z: B.Black
L: 1/8
M: 4/4
R: reel
K: Edor
BE (3EEE BcdB|AF (3FFF DFAF|Eeed egfe|dBAF EFGA|
BE (3EEE BcdB|AF (3FFF DFAF|Eeed egfe|dBAF FE E2 ||
edcd eaag|fB (3BBB gefd|efge abag|edBA Beef|
edcd eaag|fB (3BBB g2 (3efg|abag efge|dBAF FE E2 ||
